X: 27088
T: Miss Kitty's
R: polka
M: 2/4
K: Bminor
F2|:Bf ed|B2 df|ed Bf|e/f/e/d/ BA|
Bf ed|B2 df|ed BA|1 B2 F2:|2 B2 c2||
|:dA FA|E2 Af/e/|dA FA|f>g fe|
dA FA|E2 fe|dc BA|1 B2 Bc:|2 B2 F2||

